svg/u1f3cd.svg

<svg viewBox="0 0 128 128" xmlns="http://www.w3.org/2000/svg">
  <path d="M119.33,107.28l-5.75-2.52c-0.04-0.31-0.09-0.62-0.17-0.92c-0.43-1.67-2.01-3.7-4.62-4.29l-0.53-7.49 l-5.6,0.32l0.7,7.97c-2.08,1.14-3.04,3.15-2.97,5.46l-5.88,4.77l3.5,4.39l4.73-3.98c1.18,0.91,2.73,1.67,4.65,1.56 c2.31-0.13,3.89-1.33,4.87-2.55l5.09,2.73L119.33,107.28z" fill="#878787"/>
  <path d="M105.39,85.39c-9.85,0.66-18.45,9.14-18.33,19.79c0.13,11.2,8.72,19.15,19.6,19.15 c10.63,0,19.46-7.83,19.28-19.73C125.75,91.69,115.76,84.69,105.39,85.39z M106.92,116.63c-6.04-0.06-10.63-4.84-11.2-10.05 c-0.76-6.97,3.61-12.04,9.8-12.54c6.43-0.51,11.77,3.31,12.47,10.18C118.69,111.09,113.28,116.7,106.92,116.63z" fill="#4D453C"/>
  <path d="M40.11,105.11C39.06,91.72,28.02,87.3,20,87.8c-9.16,0.58-17.65,7.28-17.5,18.71 c0.13,10.05,6.43,17.94,19.32,17.94C32.14,124.46,40.87,114.85,40.11,105.11z M21.37,117.83c-7.77,0.14-12.25-4.39-12.32-11.19 c-0.06-6.37,5.15-11.9,11.71-11.71c6.3,0.18,10.94,3.75,11.71,10.37C33.24,111.92,28.24,117.71,21.37,117.83z" fill="#4D453C"/>
  <path d="M20.7,97.29c-5.09-0.27-9.55,3.24-9.61,9.67c-0.06,6.81,6.11,9.16,9.67,9.23s9.17-2.54,9.35-8.84 C30.31,100.66,26.68,97.6,20.7,97.29z" fill="#858585"/>
  <path d="M7.15,90.03c0.37,0.65,4.52,0.32,7.7,1.72c2.07,0.91,4.33,3.31,4.01,6.62 c-0.32,3.31-0.95,6.36-0.95,6.36l5.85,1.91c0,0,2.29-5.15,3.56-6.49c1.27-1.34,4.14-4.01,8.34-3.44c3.23,0.44,6.87,3.37,6.87,3.37 s-2.29-13.87-2.55-14c-0.25-0.13-12.85,0.51-12.85,0.51s-5.73-2.35-11.58-0.89C9.69,87.17,6.89,89.59,7.15,90.03z" fill="#DB0D2A"/>
  <path d="M25.92,83.99l-6.04,18.33c0,0-2.31,0.01-3.18,3.18c-0.7,2.55,1.02,4.2,2.61,4.64 c1.88,0.53,4.31-0.31,4.9-2.48c0.76-2.8-0.76-4.07-0.76-4.33s6.74-18.83,6.74-18.83L25.92,83.99z" fill="#E1D9DC"/>
  <path d="M112.51,71.62l7.21,6.37c0,0,1.61-2.58,1.61-2.83c0-0.26-4.83-6.37-4.83-6.37L112.51,71.62z" fill="#484D51"/>
  <path d="M46.8,98.53l10.87,12.26l21.15-0.1l12.95-3.86L90,99.91l-10.48-4.94c0,0,5.24-14.83,4.15-15.32 c-1.09-0.49-13.34-8.7-13.34-8.7L47.1,78.76L46.8,98.53z" fill="#2F2F2F"/>
  <path d="M91.1,81.84c0,0-3.58,3.26-5.66,6.15c-1.46,2.04-1.87,4.4-1.87,4.4l3.06,1.38 c0,0,1.85-4.24,6.18-6.76c4.97-2.9,8.75-2.53,9.34-1.25s-1.85,1.71-5.34,5.34c-2.57,2.67-3.95,5.24-3.95,5.24s11.57,4.74,11.57,5.34 c0,0.59-2.08,6.52-2.08,6.52l-13.15-3.16c0,0-8.5-2.57-9.39,0c-0.89,2.57,3.06,4.05,3.06,4.05l-3.66,2.37l-11.37-4.94 c0,0-0.67-3.14,2.87-10.08c5.35-10.51,13.34-15.82,13.34-15.82L91.1,81.84z" fill="#5E6268"/>
  <path d="M92.54,82.37c0,0,9.81-4.21,13.93-6.05c6.45-2.87,13.05-6.57,14.23-7.27 c2.13-1.27,2.11-2.46,1.52-2.95c-0.59-0.49-2.17,0.2-2.97,0.3s-3.16,0.2-3.16,0.2L98.4,71.44c0,0-11.76,7.41-11.47,7.41 S92.54,82.37,92.54,82.37z" fill="#DC0D2A"/>
  <path d="M32.08,80.14l-12.41-2.49l6.14-11.83l6.59-6.59l3.9-1.41c0,0-3.29,4.37-5.06,7.12 c-1.1,1.71-2.26,4.52-2.26,4.52s1.37-0.3,2.46-0.43c1.09-0.13,2.3-0.22,2.3-0.22s-0.36-2.34,0.15-3.55 c0.51-1.22,1.57-2.01,2.34-2.08c0.77-0.06,1.28,0.32,1.28,0.32s-0.11-1.85,0.06-2.37c0.32-0.96,3.01-2.09,6.34-3.31 c3.35-1.23,7.11-2.94,8.12-2.7c0.63,0.15,2.11,3.01,1.34,3.84c-0.77,0.83-12.66,6.4-12.66,6.4l1.98,5.44L32.08,80.14z" fill="#464C4F"/>
  <path d="M20.98,64.36c0,0,7.49-8.09,11.46-11.64c2.94-2.63,5.2-4.33,6.04-4.65c0.45-0.17,4.8-0.32,5.24-0.19 c0.45,0.13,0.9,0.83,0.19,1.54c-0.7,0.7-2.92,3.24-4.92,5.34c-0.92,0.96-2.69,3.03-2.69,3.03L33.04,59l-8.19,4.09L20.98,64.36z" fill="#AEE3FD"/>
  <path d="M79.5,110.25c0.03,0.42,0.35,0.92,1.69,0.85c1.34-0.07,14.76,0.14,16.38-0.21 c1.62-0.35,23.31-9.76,23.74-10.61c0.31-0.62,0.36-2.71-0.65-4.86c-1.13-2.4-2.26-3.6-3.74-3.32c-1.48,0.28-31.7,14.69-33.96,15.6 C80.7,108.62,79.43,109.26,79.5,110.25z" fill="#E0E0E0"/>
  <path d="M95.38,106.22c0.24,0.57,2.59,0.49,5.32-0.76c2.73-1.25,20.1-9.75,20.1-9.75s-0.29-0.87-0.8-1.68 c-0.4-0.63-1.07-1.29-1.07-1.29s-19.75,10.06-20.86,10.61C96.63,104.07,94.93,105.15,95.38,106.22z" fill="#FEFEFE"/>
  <path d="M70.17,73.38c0,0,7.73,7.52,8.84,8.08c1.12,0.56,3.25,0.81,5.03,0.46s11.59-7.78,15.81-9.1 c4.22-1.32,11.49-1.52,13.88-2.85s2.36-3.37,2.36-3.37l-20.76,1.44c0,0-4.4,7.07-12.66,6.61c-6.35-0.36-11.13-5.69-11.13-5.69 L70.17,73.38z" fill="#464C4F"/>
  <path d="M94.27,87.96c1.83,0.97,2.7-1.14,2.24-2.08c-0.97-1.98-4.57-7.61-5.49-7.98 c-0.76-0.3-4.88,2.69-5.29,3c-0.41,0.3-0.26,0.95,0.61,1.58C87.46,83.29,92.85,87.21,94.27,87.96z" fill="#C8C8C8"/>
  <polygon points="53.68,78.36 69.85,77.77 73,81.06 62.42,87.63 52.17,85.13 51.25,78.76 " fill="#464C4F"/>
  <path d="M46.78,88.48l-8.51,9.29c0,0,3.12,5.54,3.98,7.92c0.9,2.48,2.17,6.96,2.17,6.96 s32.26,0.92,33.77,0.72c1.51-0.2,3.22-1.97,2.43-2.69s-13.08-5.78-13.08-5.78s-9.66,0.66-11.24,0.07c-1.58-0.59-6.73-7.69-6.45-8.23 c0.68-1.34,13.22-9.51,13.22-9.51l-1.05-1.12l-9.66-2.17l0.59-3.94c0,0,4.34-3.48,4.86-3.48s5.72-0.85,8.61-1.51 c2.89-0.66,6.44-1.45,7.29-1.91c0.85-0.46,1.48-1.25,1.25-2.5c-0.18-0.94-2.63-1.77-2.63-1.77l-25.36-1.45l-5.21,0.55 c0,0-0.7,2.34-4.45,4.64s-10.13,3.79-10.13,3.79L46.78,88.48z" fill="#DC0D2A"/>
  <path d="M36.21,57.81c0,0-8.51,1.43-14.29,5.77s-8.02,13.08-8.15,13.93c-0.13,0.85-1.23,3.68,0.94,5.04 c1.05,0.66,3.14,0.35,5.37,0.88c1.85,0.43,6.04,1.84,9.26,4.73s8.94,9.66,8.94,9.66l23.74-11.7c0,0-6.85-8.01-22.69-9.06 s-17.48-0.66-17.48-0.66s1.99-5.72,4.8-9.46C30.4,61.94,36.21,57.81,36.21,57.81z" fill="#FE2A22"/>
  <path d="M41.75,67.95c0,0,4.7,3.98,13.18,4.7c8.48,0.72,17.41-3.81,17.41-3.81s-14.3-6.62-16.03-6.5 C54.45,62.46,41.82,67.55,41.75,67.95z" fill="#FE2A22"/>
  <path d="M16.38,70.5c0,0,5.39-0.03,5.43,0.19s-1.98,5.33-1.98,5.33s-6.17,3.2-6.36,3.16 c-0.19-0.04-0.04-2.75,0.76-4.95S16.38,70.5,16.38,70.5z" fill="#D9E3DF"/>
  <path d="M18.57,61.14c0.25,0.9,3.99,3.72,6.42,3.5c2.23-0.2,1.85-4.35,1.83-5.37 c-0.03-2.06-0.21-3.8-0.33-4.88c-0.13-1.18-1.11-1.31-1.8-0.75C24,54.19,18.3,60.19,18.57,61.14z" fill="#464C4F"/>
  <path d="M59.02,97.7c0,0-1.53-4.28,2.07-6.75c2.72-1.87,6.17-1.62,8.51,1.49c2.34,3.11,0.25,6.76-0.99,7.79 c-4.05,3.38-7.74,0.18-7.74,0.18s0.24,1.76-1.35,2.97c-1.13,0.86-3.96,1.11-5.13-1.04c-1.26-2.32,0.03-4.04,1.35-4.77 C57.44,96.62,59.02,97.7,59.02,97.7z" fill="#464C4F"/>
</svg>

<svg viewBox="0 0 128 128" xmlns="http://www.w3.org/2000/svg">
  <defs/>
  <path d="M119.33,107.28 L113.58,104.76 C113.54,104.45 113.49,104.14 113.41,103.84 C112.98,102.17 111.4,100.14 108.79,99.55 L108.26,92.06 L102.66,92.38 L103.36,100.35 C101.28,101.49 100.32,103.5 100.39,105.81 L94.51,110.58 L98.01,114.97 L102.74,110.99 C103.92,111.9 105.47,112.66 107.39,112.55 C109.7,112.42 111.28,111.22 112.26,110 L117.35,112.73 L119.33,107.28 Z" fill="#878787"/>
  <path d="M105.39,85.39 C95.54,86.05 86.94,94.53 87.06,105.18 C87.19,116.38 95.78,124.33 106.66,124.33 C117.29,124.33 126.12,116.5 125.94,104.6 C125.75,91.69 115.76,84.69 105.39,85.39 Z M106.92,116.63 C100.88,116.57 96.29,111.79 95.72,106.58 C94.96,99.61 99.33,94.54 105.52,94.04 C111.95,93.53 117.29,97.35 117.99,104.22 C118.69,111.09 113.28,116.7 106.92,116.63 Z" fill="#4D453C"/>
  <path d="M40.11,105.11 C39.06,91.72 28.02,87.3 20,87.8 C10.84,88.38 2.35,95.08 2.5,106.51 C2.63,116.56 8.93,124.45 21.82,124.45 C32.14,124.46 40.87,114.85 40.11,105.11 Z M21.37,117.83 C13.6,117.97 9.12,113.44 9.05,106.64 C8.99,100.27 14.2,94.74 20.76,94.93 C27.06,95.11 31.7,98.68 32.47,105.3 C33.24,111.92 28.24,117.71 21.37,117.83 Z" fill="#4D453C"/>
  <path d="M20.7,97.29 C15.61,97.02 11.15,100.53 11.09,106.96 C11.03,113.77 17.2,116.12 20.76,116.19 C24.32,116.26 29.93,113.65 30.11,107.35 C30.31,100.66 26.68,97.6 20.7,97.29 Z" fill="#858585"/>
  <path d="M7.15,90.03 C7.52,90.68 11.67,90.35 14.85,91.75 C16.92,92.66 19.18,95.06 18.86,98.37 C18.54,101.68 17.91,104.73 17.91,104.73 L23.76,106.64 C23.76,106.64 26.05,101.49 27.32,100.15 C28.59,98.81 31.46,96.14 35.66,96.71 C38.89,97.15 42.53,100.08 42.53,100.08 C42.53,100.08 40.24,86.21 39.98,86.08 C39.73,85.95 27.13,86.59 27.13,86.59 C27.13,86.59 21.4,84.24 15.55,85.7 C9.69,87.17 6.89,89.59 7.15,90.03 Z" fill="#DB0D2A"/>
  <path d="M25.92,83.99 L19.88,102.32 C19.88,102.32 17.57,102.33 16.7,105.5 C16,108.05 17.72,109.7 19.31,110.14 C21.19,110.67 23.62,109.83 24.21,107.66 C24.97,104.86 23.45,103.59 23.45,103.33 C23.45,103.07 30.19,84.5 30.19,84.5 L25.92,83.99 Z" fill="#E1D9DC"/>
  <path d="M112.51,71.62 L119.72,77.99 C119.72,77.99 121.33,75.41 121.33,75.16 C121.33,74.9 116.5,68.79 116.5,68.79 L112.51,71.62 Z" fill="#484D51"/>
  <path d="M46.8,98.53 L57.67,110.79 L78.82,110.69 L91.77,106.83 L90,99.91 L79.52,94.97 C79.52,94.97 84.76,80.14 83.67,79.65 C82.58,79.16 70.33,70.95 70.33,70.95 L47.1,78.76 L46.8,98.53 Z" fill="#2F2F2F"/>
  <path d="M91.1,81.84 C91.1,81.84 87.52,85.1 85.44,87.99 C83.98,90.03 83.57,92.39 83.57,92.39 L86.63,93.77 C86.63,93.77 88.48,89.53 92.81,87.01 C97.78,84.11 101.56,84.48 102.15,85.76 C102.74,87.04 100.3,87.47 96.81,91.1 C94.24,93.77 92.86,96.34 92.86,96.34 C92.86,96.34 104.43,101.08 104.43,101.68 C104.43,102.27 102.35,108.2 102.35,108.2 L89.2,105.04 C89.2,105.04 80.7,102.47 79.81,105.04 C78.92,107.61 82.87,109.09 82.87,109.09 L79.21,111.46 L67.84,106.52 C67.84,106.52 67.17,103.38 70.71,96.44 C76.06,85.93 84.05,80.62 84.05,80.62 L91.1,81.84 Z" fill="#5E6268"/>
  <path d="M92.54,82.37 C92.54,82.37 102.35,78.16 106.47,76.32 C112.92,73.45 119.52,69.75 120.7,69.05 C122.83,67.78 122.81,66.59 122.22,66.1 C121.63,65.61 120.05,66.3 119.25,66.4 C118.45,66.5 116.09,66.6 116.09,66.6 L98.4,71.44 C98.4,71.44 86.64,78.85 86.93,78.85 C87.22,78.85 92.54,82.37 92.54,82.37 Z" fill="#DC0D2A"/>
  <path d="M32.08,80.14 L19.67,77.65 L25.81,65.82 L32.4,59.23 L36.3,57.82 C36.3,57.82 33.01,62.19 31.24,64.94 C30.14,66.65 28.98,69.46 28.98,69.46 C28.98,69.46 30.35,69.16 31.44,69.03 C32.53,68.9 33.74,68.81 33.74,68.81 C33.74,68.81 33.38,66.47 33.89,65.26 C34.4,64.04 35.46,63.25 36.23,63.18 C37,63.12 37.51,63.5 37.51,63.5 C37.51,63.5 37.4,61.65 37.57,61.13 C37.89,60.17 40.58,59.04 43.91,57.82 C47.26,56.59 51.02,54.88 52.03,55.12 C52.66,55.27 54.14,58.13 53.37,58.96 C52.6,59.79 40.71,65.36 40.71,65.36 L42.69,70.8 L32.08,80.14 Z" fill="#464C4F"/>
  <path d="M20.98,64.36 C20.98,64.36 28.47,56.27 32.44,52.72 C35.38,50.09 37.64,48.39 38.48,48.07 C38.93,47.9 43.28,47.75 43.72,47.88 C44.17,48.01 44.62,48.71 43.91,49.42 C43.21,50.12 40.99,52.66 38.99,54.76 C38.07,55.72 36.3,57.79 36.3,57.79 L33.04,59 L24.85,63.09 L20.98,64.36 Z" fill="#AEE3FD"/>
  <path d="M79.5,110.25 C79.53,110.67 79.85,111.17 81.19,111.1 C82.53,111.03 95.95,111.24 97.57,110.89 C99.19,110.54 120.88,101.13 121.31,100.28 C121.62,99.66 121.67,97.57 120.66,95.42 C119.53,93.02 118.4,91.82 116.92,92.1 C115.44,92.38 85.22,106.79 82.96,107.7 C80.7,108.62 79.43,109.26 79.5,110.25 Z" fill="#E0E0E0"/>
  <path d="M95.38,106.22 C95.62,106.79 97.97,106.71 100.7,105.46 C103.43,104.21 120.8,95.71 120.8,95.71 C120.8,95.71 120.51,94.84 120,94.03 C119.6,93.4 118.93,92.74 118.93,92.74 C118.93,92.74 99.18,102.8 98.07,103.35 C96.63,104.07 94.93,105.15 95.38,106.22 Z" fill="#FEFEFE"/>
  <path d="M70.17,73.38 C70.17,73.38 77.9,80.9 79.01,81.46 C80.13,82.02 82.26,82.27 84.04,81.92 C85.82,81.57 95.63,74.14 99.85,72.82 C104.07,71.5 111.34,71.3 113.73,69.97 C116.12,68.64 116.09,66.6 116.09,66.6 L95.33,68.04 C95.33,68.04 90.93,75.11 82.67,74.65 C76.32,74.29 71.54,68.96 71.54,68.96 L70.17,73.38 Z" fill="#464C4F"/>
  <path d="M94.27,87.96 C96.1,88.93 96.97,86.82 96.51,85.88 C95.54,83.9 91.94,78.27 91.02,77.9 C90.26,77.6 86.14,80.59 85.73,80.9 C85.32,81.2 85.47,81.85 86.34,82.48 C87.46,83.29 92.85,87.21 94.27,87.96 Z" fill="#C8C8C8"/>
  <path d="M53.68,78.36 L69.85,77.77 L73,81.06 L62.42,87.63 L52.17,85.13 L51.25,78.76 Z" fill="#464C4F"/>
  <path d="M46.78,88.48 L38.27,97.77 C38.27,97.77 41.39,103.31 42.25,105.69 C43.15,108.17 44.42,112.65 44.42,112.65 C44.42,112.65 76.68,113.57 78.19,113.37 C79.7,113.17 81.41,111.4 80.62,110.68 C79.83,109.96 67.54,104.9 67.54,104.9 C67.54,104.9 57.88,105.56 56.3,104.97 C54.72,104.38 49.57,97.28 49.85,96.74 C50.53,95.4 63.07,87.23 63.07,87.23 L62.02,86.11 L52.36,83.94 L52.95,80 C52.95,80 57.29,76.52 57.81,76.52 C58.33,76.52 63.53,75.67 66.42,75.01 C69.31,74.35 72.86,73.56 73.71,73.1 C74.56,72.64 75.19,71.85 74.96,70.6 C74.78,69.66 72.33,68.83 72.33,68.83 L46.97,67.38 L41.76,67.93 C41.76,67.93 41.06,70.27 37.31,72.57 C33.56,74.87 27.18,76.36 27.18,76.36 L46.78,88.48 Z" fill="#DC0D2A"/>
  <path d="M36.21,57.81 C36.21,57.81 27.7,59.24 21.92,63.58 C16.14,67.92 13.9,76.66 13.77,77.51 C13.64,78.36 12.54,81.19 14.71,82.55 C15.76,83.21 17.85,82.9 20.08,83.43 C21.93,83.86 26.12,85.27 29.34,88.16 C32.56,91.05 38.28,97.82 38.28,97.82 L62.02,86.12 C62.02,86.12 55.17,78.11 39.33,77.06 C23.49,76.01 21.85,76.4 21.85,76.4 C21.85,76.4 23.84,70.68 26.65,66.94 C30.4,61.94 36.21,57.81 36.21,57.81 Z" fill="#FE2A22"/>
  <path d="M41.75,67.95 C41.75,67.95 46.45,71.93 54.93,72.65 C63.41,73.37 72.34,68.84 72.34,68.84 C72.34,68.84 58.04,62.22 56.31,62.34 C54.45,62.46 41.82,67.55 41.75,67.95 Z" fill="#FE2A22"/>
  <path d="M16.38,70.5 C16.38,70.5 21.77,70.47 21.81,70.69 C21.85,70.91 19.83,76.02 19.83,76.02 C19.83,76.02 13.66,79.22 13.47,79.18 C13.28,79.14 13.43,76.43 14.23,74.23 C15.03,72.03 16.38,70.5 16.38,70.5 Z" fill="#D9E3DF"/>
  <path d="M18.57,61.14 C18.82,62.04 22.56,64.86 24.99,64.64 C27.22,64.44 26.84,60.29 26.82,59.27 C26.79,57.21 26.61,55.47 26.49,54.39 C26.36,53.21 25.38,53.08 24.69,53.64 C24,54.19 18.3,60.19 18.57,61.14 Z" fill="#464C4F"/>
  <path d="M59.02,97.7 C59.02,97.7 57.49,93.42 61.09,90.95 C63.81,89.08 67.26,89.33 69.6,92.44 C71.94,95.55 69.85,99.2 68.61,100.23 C64.56,103.61 60.87,100.41 60.87,100.41 C60.87,100.41 61.11,102.17 59.52,103.38 C58.39,104.24 55.56,104.49 54.39,102.34 C53.13,100.02 54.42,98.3 55.74,97.57 C57.44,96.62 59.02,97.7 59.02,97.7 Z" fill="#464C4F"/>
</svg>
